svgs/amazon_alexa.svg

<svg width="192" height="192" viewBox="0 0 192 192" fill="none" xmlns="http://www.w3.org/2000/svg">
<path d="M96 170C55.1309 170 22 136.869 22 96C22 55.1309 55.1309 22 96 22C136.869 22 170 55.1309 170 96C170 113.654 163.818 129.865 153.5 142.584C139.933 159.31 119.215 170 96 170ZM96 170V160C96 151.163 88.6399 144.261 80.2897 141.37C61.4954 134.863 48 117.008 48 96C48 69.4903 69.4903 48 96 48C122.51 48 144 69.4903 144 96C144 122.51 130.467 161.5 96 170Z" stroke="black" stroke-width="12" stroke-linejoin="round"/>
</svg>

<svg width="192" height="192" viewBox="0 0 192 192" fill="none" xmlns="http://www.w3.org/2000/svg"><path d="M96 170c-40.87 0-74-33.131-74-74 0-40.87 33.13-74 74-74 40.869 0 74 33.13 74 74 0 17.654-6.182 33.865-16.5 46.584C139.933 159.31 119.215 170 96 170Zm0 0v-10c0-8.837-7.36-15.739-15.71-18.63C61.495 134.863 48 117.008 48 96c0-26.51 21.49-48 48-48s48 21.49 48 48-13.533 65.5-48 74Z" stroke="#000" stroke-width="12" stroke-linejoin="round"/></svg>
